img/svg/event.svg

<svg width="55" height="80" viewBox="0 0 55 80" xmlns="http://www.w3.org/2000/svg"><title>noun_Christmas_1179714</title><g fill="#000" fill-rule="nonzero"><path d="M27.125 7.017a2.977 2.977 0 0 0-2.973 2.973 2.976 2.976 0 0 0 2.973 2.973 2.976 2.976 0 0 0 2.973-2.973 2.977 2.977 0 0 0-2.973-2.973zm0 3.945a.975.975 0 0 1-.973-.973c0-.536.437-.973.973-.973s.973.437.973.973a.975.975 0 0 1-.973.973zM27.125.001a2.977 2.977 0 0 0-2.973 2.973 2.976 2.976 0 0 0 2.973 2.973 2.976 2.976 0 0 0 2.973-2.973A2.977 2.977 0 0 0 27.125.001zm0 3.945a.975.975 0 0 1-.973-.973c0-.536.437-.973.973-.973s.973.437.973.973a.975.975 0 0 1-.973.973zM34.674 27.259V22.62a3.084 3.084 0 0 0-2.951-3.074c.016-.16.048-.317.048-.48a4.651 4.651 0 0 0-4.646-4.646 4.651 4.651 0 0 0-4.646 4.646c0 .163.031.32.048.48a3.084 3.084 0 0 0-2.951 3.074v4.639l-.101.029c-.021.007-.043.009-.063.018A26.96 26.96 0 0 0 7.308 34.9c-.015.013-.034.018-.048.032-.018.018-.024.041-.04.06C2.868 39.775.211 46.127.211 53.088.212 67.927 12.285 80 27.125 80c14.84 0 26.913-12.073 26.913-26.913 0-12.219-8.188-22.556-19.364-25.828zM27.125 16.42a2.65 2.65 0 0 1 2.646 2.646c0 .158-.019.313-.046.466h-5.199a2.676 2.676 0 0 1-.046-.466 2.648 2.648 0 0 1 2.645-2.646zm-5.549 6.2c0-.6.488-1.088 1.088-1.088h8.923c.6 0 1.088.488 1.088 1.088v4.132a26.923 26.923 0 0 0-11.098 0V22.62h-.001zm10.431 54.897L2.695 48.205a24.842 24.842 0 0 1 5.332-11.094l35.105 35.046a24.834 24.834 0 0 1-11.125 5.36zM2.212 53.087c0-.816.042-1.622.119-2.418l27.212 27.212c-.796.077-1.602.119-2.418.119C13.388 78 2.212 66.824 2.212 53.087zm42.402 17.721l-35.24-35.18a24.939 24.939 0 0 1 10.15-6.265l31.324 31.324a24.937 24.937 0 0 1-6.234 10.121zm6.834-12.349L21.753 28.764a24.903 24.903 0 0 1 5.372-.59c13.737 0 24.913 11.176 24.913 24.913 0 1.845-.208 3.641-.59 5.372z"/></g></svg>

<?xml version="1.0" encoding="UTF-8"?>
<svg width="55px" height="80px" viewBox="0 0 55 80" version="1.1" xmlns="http://www.w3.org/2000/svg" xmlns:xlink="http://www.w3.org/1999/xlink">
    <!-- Generator: Sketch 52.6 (67491) - http://www.bohemiancoding.com/sketch -->
    <title>noun_Christmas_1179714</title>
    <desc>Created with Sketch.</desc>
    <g id="Quentia-Index-1.5" stroke="none" stroke-width="1" fill="none" fill-rule="evenodd">
        <g id="index-menu-clicked" transform="translate(-572.000000, -1872.000000)" fill="#000000" fill-rule="nonzero">
            <g id="Group-18" transform="translate(335.000000, 1871.000000)">
                <g id="Group-15" transform="translate(237.000000, 1.000000)">
                    <g id="noun_Christmas_1179714">
                        <path d="M27.125,7.017 C25.486,7.017 24.152,8.351 24.152,9.99 C24.152,11.629 25.485,12.963 27.125,12.963 C28.765,12.963 30.098,11.629 30.098,9.99 C30.098,8.351 28.764,7.017 27.125,7.017 Z M27.125,10.962 C26.589,10.962 26.152,10.525 26.152,9.989 C26.152,9.453 26.589,9.016 27.125,9.016 C27.661,9.016 28.098,9.453 28.098,9.989 C28.098,10.525 27.661,10.962 27.125,10.962 Z" id="Shape"></path>
                        <path d="M27.125,0.001 C25.486,0.001 24.152,1.335 24.152,2.974 C24.152,4.613 25.485,5.947 27.125,5.947 C28.765,5.947 30.098,4.613 30.098,2.974 C30.098,1.335 28.764,0.001 27.125,0.001 Z M27.125,3.946 C26.589,3.946 26.152,3.509 26.152,2.973 C26.152,2.437 26.589,2 27.125,2 C27.661,2 28.098,2.437 28.098,2.973 C28.098,3.509 27.661,3.946 27.125,3.946 Z" id="Shape"></path>
                        <path d="M34.674,27.259 L34.674,22.62 C34.674,20.964 33.361,19.619 31.723,19.546 C31.739,19.386 31.771,19.229 31.771,19.066 C31.771,16.504 29.687,14.42 27.125,14.42 C24.563,14.42 22.479,16.504 22.479,19.066 C22.479,19.229 22.51,19.386 22.527,19.546 C20.889,19.619 19.576,20.964 19.576,22.62 L19.576,27.259 C19.542,27.269 19.509,27.278 19.475,27.288 C19.454,27.295 19.432,27.297 19.412,27.306 C14.711,28.715 10.547,31.374 7.308,34.9 C7.293,34.913 7.274,34.918 7.26,34.932 C7.242,34.95 7.236,34.973 7.22,34.992 C2.868,39.775 0.211,46.127 0.211,53.088 C0.212,67.927 12.285,80 27.125,80 C41.965,80 54.038,67.927 54.038,53.087 C54.038,40.868 45.85,30.531 34.674,27.259 Z M27.125,16.42 C28.583,16.42 29.771,17.608 29.771,19.066 C29.771,19.224 29.752,19.379 29.725,19.532 L24.526,19.532 C24.499,19.379 24.48,19.224 24.48,19.066 C24.479,17.607 25.667,16.42 27.125,16.42 Z M21.576,22.62 C21.576,22.02 22.064,21.532 22.664,21.532 L31.587,21.532 C32.187,21.532 32.675,22.02 32.675,22.62 L32.675,26.752 C30.883,26.375 29.028,26.174 27.126,26.174 C25.224,26.174 23.368,26.375 21.577,26.752 L21.577,22.62 L21.576,22.62 Z M32.007,77.517 L2.695,48.205 C3.526,44.041 5.398,40.249 8.027,37.111 L43.132,72.157 C39.989,74.8 36.186,76.683 32.007,77.517 Z M2.212,53.087 C2.212,52.271 2.254,51.465 2.331,50.669 L29.543,77.881 C28.747,77.958 27.941,78 27.125,78 C13.388,78 2.212,66.824 2.212,53.087 Z M44.614,70.808 L9.374,35.628 C12.17,32.785 15.64,30.61 19.524,29.363 L50.848,60.687 C49.606,64.557 47.442,68.017 44.614,70.808 Z M51.448,58.459 L21.753,28.764 C23.484,28.382 25.281,28.174 27.125,28.174 C40.862,28.174 52.038,39.35 52.038,53.087 C52.038,54.932 51.83,56.728 51.448,58.459 Z" id="Shape"></path>
                    </g>
                </g>
            </g>
        </g>
    </g>
</svg>
